X:0890
T:The Basket of Oysters,
C:Irish.
M:6/8
L:1/8
Q:3/8=112
I: :: :|
Z:Jack Campin * www.campin.me.uk * 2009
K:B Minor
c|d2d def|e2d cde|dcB BAB|c2A F2c|d2d def|e2d cde|dcB cBA|B3 B2:|
d|A2G FEF|A2G F2d|A2G FEF|d2c B2d|A2G FEF|A2G F2c|dcB cBA|B3 B2:|

